src/actions/24/mail-signed-verified.svg

<svg xmlns="http://www.w3.org/2000/svg" viewBox="0 0 24 24">
  <defs id="defs3051">
    <style type="text/css" id="current-color-scheme">
      .ColorScheme-Text {
        color:#2e3440;
      }
      .ColorScheme-PositiveText {
        color:#a3be8c;
      }
      </style>
  </defs>
  <path 
     style="fill:currentColor;fill-opacity:1;stroke:none" 
     d="M 2 4 L 2 5 L 2 13 L 2 19 L 2 19.414062 L 2 20 L 3 20 L 9 20 L 12 20 L 12 19 L 9 19 L 3 19 L 3 18.414062 L 3.4628906 17.951172 L 9.7304688 11.683594 L 11.183594 13.134766 L 11.998047 13.949219 L 12 13.949219 L 12.816406 13.134766 L 14.269531 11.683594 L 15.585938 13 L 17 13 L 14.976562 10.976562 L 20.728516 5.2226562 L 20.951172 5 L 21 5 L 21 5.2226562 L 21 11 L 22 11 L 22 4 L 21.951172 4 L 21 4 L 20.537109 4 L 3.4628906 4 L 3 4 L 2 4 z M 3 5 L 3.0488281 5 L 3.2714844 5.2226562 L 9.0234375 10.976562 L 3 17 L 3 13 L 3 5.2226562 L 3 5 z M 4.4628906 5 L 19.537109 5 L 12 12.537109 L 4.4628906 5 z "
     class="ColorScheme-Text"
     />
  <path
     style="fill:currentColor;fill-opacity:1;stroke:none" 
     class="ColorScheme-PositiveText"
     d="M 21.292969 14 L 16.701172 18.591797 L 15.554688 17.445312 L 14.847656 18.152344 L 16.693359 20 L 16.699219 19.992188 L 16.707031 20 L 22 14.707031 L 21.292969 14 z "
      />
</svg>

<svg viewBox="0 0 24 24" xmlns="http://www.w3.org/2000/svg">
 <defs>
  <style type="text/css">.ColorScheme-Text {
        color:#2e3440;
      }
      .ColorScheme-PositiveText {
        color:#a3be8c;
      }</style>
 </defs>
 <path class="ColorScheme-Text" d="m2 4v1 8 6 0.41406 0.58594h1 6 3v-1h-3-6v-0.58594l6.7305-6.7305 1.4531 1.4512 0.81445 0.81445h0.001953l0.81641-0.81445 1.4531-1.4512 1.3164 1.3164h1.4141l-2.0234-2.0234 5.752-5.7539 0.22266-0.22266h0.048828v0.22266 5.7773h1v-7h-0.048828-0.95117-0.46289-17.074-0.46289-1zm1 1h0.048828l0.22266 0.22266 5.752 5.7539-6.0234 6.0234v-4-7.7773-0.22266zm1.4629 0h15.074l-7.5371 7.5371-7.5371-7.5371z" fill="currentColor"/>
 <path class="ColorScheme-PositiveText" d="m21.293 14-4.5918 4.5918-1.1465-1.1465-0.70703 0.70703 1.8457 1.8477 0.00586-0.007812 0.007812 0.007812 5.293-5.293-0.70703-0.70703z" fill="currentColor"/>
</svg>
